img/svg/editors/coins.svg

<svg width="24" height="24" viewBox="0 0 24 24" fill="none" xmlns="http://www.w3.org/2000/svg">
<path d="M6.47876 8.75916C3.33045 8.75916 0.957031 10.1442 0.957031 11.9802V19.3425C0.957031 21.1784 3.33045 22.5635 6.47876 22.5635C9.62706 22.5635 12.0005 21.1784 12.0005 19.3425V11.9802C12.0005 10.1442 9.62706 8.75916 6.47876 8.75916ZM10.1599 15.6613C10.1599 16.1481 8.76199 17.0417 6.47876 17.0417C4.19553 17.0417 2.79761 16.1481 2.79761 15.6613V14.4208C3.76023 14.9113 5.03851 15.2012 6.47876 15.2012C7.91901 15.2012 9.19729 14.9113 10.1599 14.4208V15.6613ZM6.47876 10.5997C8.76199 10.5997 10.1599 11.4933 10.1599 11.9802C10.1599 12.467 8.76199 13.3606 6.47876 13.3606C4.19553 13.3606 2.79761 12.467 2.79761 11.9802C2.79761 11.4933 4.19553 10.5997 6.47876 10.5997ZM6.47876 20.7229C4.19553 20.7229 2.79761 19.8293 2.79761 19.3425V18.1019C3.76023 18.5924 5.03851 18.8823 6.47876 18.8823C7.91901 18.8823 9.19729 18.5924 10.1599 18.1019V19.3425C10.1599 19.8293 8.76199 20.7229 6.47876 20.7229ZM23.0439 5.078V17.962C23.0439 20.4993 20.9797 22.5635 18.4425 22.5635H13.8411C13.597 22.5635 13.3629 22.4665 13.1903 22.2939C13.0177 22.1213 12.9208 21.8873 12.9208 21.6432C12.9208 21.3991 13.0177 21.165 13.1903 20.9924C13.3629 20.8199 13.597 20.7229 13.8411 20.7229H18.4425C19.9647 20.7229 21.2034 19.4842 21.2034 17.962V5.078C21.2034 3.55585 19.9647 2.31714 18.4425 2.31714H9.23962C7.71747 2.31714 6.47876 3.55585 6.47876 5.078V5.99829C6.47876 6.24237 6.3818 6.47645 6.20921 6.64903C6.03663 6.82162 5.80255 6.91858 5.55847 6.91858C5.3144 6.91858 5.08032 6.82162 4.90773 6.64903C4.73514 6.47645 4.63818 6.24237 4.63818 5.99829V5.078C4.63818 2.54077 6.70239 0.476562 9.23962 0.476562H18.4425C20.9797 0.476562 23.0439 2.54077 23.0439 5.078ZM12.9208 9.67944C12.6767 9.67944 12.4426 9.58248 12.27 9.4099C12.0974 9.23731 12.0005 9.00323 12.0005 8.75916C12.0005 8.51508 12.0974 8.281 12.27 8.10841C12.4426 7.93583 12.6767 7.83887 12.9208 7.83887H17.5222V5.99829H10.1599V6.45843C10.1599 6.70251 10.063 6.93659 9.89037 7.10918C9.71778 7.28176 9.4837 7.37872 9.23962 7.37872C8.99555 7.37872 8.76147 7.28176 8.58888 7.10918C8.41629 6.93659 8.31934 6.70251 8.31934 6.45843V5.99829C8.31934 4.98321 9.14483 4.15771 10.1599 4.15771H17.5222C18.5373 4.15771 19.3628 4.98321 19.3628 5.99829V7.83887C19.3628 8.85394 18.5373 9.67944 17.5222 9.67944H12.9208ZM13.8411 17.0417C13.8411 16.7977 13.938 16.5636 14.1106 16.391C14.2832 16.2184 14.5173 16.1215 14.7614 16.1215H18.4425C18.6866 16.1215 18.9207 16.2184 19.0932 16.391C19.2658 16.5636 19.3628 16.7977 19.3628 17.0417C19.3628 17.2858 19.2658 17.5199 19.0932 17.6925C18.9207 17.8651 18.6866 17.962 18.4425 17.962H14.7614C14.5173 17.962 14.2832 17.8651 14.1106 17.6925C13.938 17.5199 13.8411 17.2858 13.8411 17.0417ZM13.8411 13.3606V12.4403C13.8411 12.1962 13.938 11.9622 14.1106 11.7896C14.2832 11.617 14.5173 11.52 14.7614 11.52C15.0054 11.52 15.2395 11.617 15.4121 11.7896C15.5847 11.9622 15.6816 12.1962 15.6816 12.4403V13.3606C15.6816 13.6047 15.5847 13.8387 15.4121 14.0113C15.2395 14.1839 15.0054 14.2809 14.7614 14.2809C14.5173 14.2809 14.2832 14.1839 14.1106 14.0113C13.938 13.8387 13.8411 13.6047 13.8411 13.3606ZM19.3628 13.3606C19.3628 13.6047 19.2658 13.8387 19.0932 14.0113C18.9207 14.1839 18.6866 14.2809 18.4425 14.2809C18.1984 14.2809 17.9643 14.1839 17.7918 14.0113C17.6192 13.8387 17.5222 13.6047 17.5222 13.3606V12.4403C17.5222 12.1962 17.6192 11.9622 17.7918 11.7896C17.9643 11.617 18.1984 11.52 18.4425 11.52C18.6866 11.52 18.9207 11.617 19.0932 11.7896C19.2658 11.9622 19.3628 12.1962 19.3628 12.4403V13.3606Z" fill="white"/>
<path d="M11.7794 19.3421V11.9805C11.7794 11.1692 11.2565 10.4248 10.3095 9.87213C9.36384 9.32045 8.0235 8.98024 6.47876 8.98024C4.93402 8.98024 3.59368 9.32045 2.64806 9.87213C1.70104 10.4248 1.17812 11.1692 1.17812 11.9805V19.3421C1.17812 20.1534 1.70104 20.8979 2.64806 21.4505C3.59368 22.0022 4.93402 22.3424 6.47876 22.3424V22.5635L5.89747 22.5473C3.04283 22.3883 0.957031 21.0636 0.957031 19.3425V11.9802C0.957031 10.1442 3.33045 8.75916 6.47876 8.75916L7.06005 8.77533C9.91469 8.93434 12.0005 10.259 12.0005 11.9802V19.3425L11.994 19.5136C11.8516 21.2638 9.5285 22.5635 6.47876 22.5635V22.3424C8.0235 22.3424 9.36384 22.0022 10.3095 21.4505C11.2565 20.8979 11.7794 20.1534 11.7794 19.3421ZM12.9208 21.6432C12.9208 21.3991 13.0177 21.165 13.1903 20.9924C13.3412 20.8415 13.5392 20.7489 13.7498 20.7279L13.8411 20.7229H18.4425C19.9647 20.7229 21.2034 19.4842 21.2034 17.962V5.078C21.2034 3.6511 20.1148 2.47335 18.7247 2.33152L18.4425 2.31714L18.4421 2.09641C20.0863 2.09641 21.4241 3.43422 21.4241 5.07836V17.9617C21.4241 19.6058 20.0863 20.9436 18.4421 20.9436H13.8414C13.6559 20.9436 13.4776 21.0174 13.3464 21.1485C13.2152 21.2797 13.1415 21.458 13.1415 21.6435C13.1416 21.8288 13.2154 22.0064 13.3464 22.1375C13.4776 22.2687 13.6559 22.3424 13.8414 22.3424L13.8411 22.5635L13.7498 22.5592C13.5392 22.5382 13.3413 22.4449 13.1903 22.2939C13.0394 22.1429 12.9467 21.9447 12.9258 21.7341L12.9208 21.6432ZM18.4421 22.3424L18.4425 22.5635H13.8411L13.8414 22.3424H18.4421ZM22.8229 17.9617V5.07836C22.8229 2.66311 20.8574 0.697647 18.4421 0.697647H9.23962C6.82437 0.697647 4.85891 2.66311 4.85891 5.07836V5.99829C4.85891 6.18379 4.93265 6.36214 5.06382 6.49331C5.19497 6.62436 5.37342 6.69821 5.55883 6.69821L5.55847 6.91858L5.46716 6.91391C5.25662 6.89292 5.05866 6.79996 4.90773 6.64903C4.75685 6.49799 4.66406 6.29951 4.64322 6.08888L4.63818 5.99829V5.078C4.63818 2.61998 6.57554 0.606397 9.00344 0.483033L9.23962 0.476562H18.4425C20.9797 0.476562 23.0439 2.54077 23.0439 5.078V17.962L23.0375 18.1989C22.9177 20.548 21.0285 22.4373 18.6794 22.557L18.4425 22.5635L18.4421 22.3424C20.8574 22.3424 22.8229 20.3769 22.8229 17.9617ZM2.57688 19.3421V17.7417L2.89826 17.9056C3.82385 18.3771 5.06629 18.6616 6.47876 18.6616V18.8823L5.94708 18.8687C4.72431 18.8065 3.63998 18.5311 2.79761 18.1019V19.3425L2.81414 19.4381C2.96528 19.9041 4.16199 20.6196 6.06139 20.7128L6.47876 20.7229C8.76199 20.7229 10.1599 19.8293 10.1599 19.3425V18.1019C9.19729 18.5924 7.91901 18.8823 6.47876 18.8823V18.6616C7.89123 18.6616 9.13367 18.3771 10.0593 17.9056L10.3806 17.7417V19.3421C10.3806 19.5604 10.2334 19.7637 10.0549 19.9266C9.86617 20.099 9.5978 20.2686 9.26551 20.4173C8.59929 20.7155 7.64781 20.9436 6.47876 20.9436C5.30971 20.9436 4.35823 20.7155 3.69201 20.4173C3.35972 20.2686 3.09135 20.099 2.90258 19.9266C2.72413 19.7637 2.57688 19.5604 2.57688 19.3421ZM18.4421 17.7417L18.4425 17.962H14.7614V17.7417H18.4421ZM19.1421 17.0417C19.1421 16.8562 19.0683 16.6779 18.9372 16.5467C18.806 16.4157 18.6276 16.3418 18.4421 16.3418H14.7614C14.5759 16.3418 14.3975 16.4156 14.2663 16.5467C14.1352 16.6779 14.0614 16.8563 14.0614 17.0417C14.0614 17.2272 14.1352 17.4056 14.2663 17.5368C14.3975 17.6679 14.5759 17.7417 14.7614 17.7417V17.962L14.6708 17.9574C14.49 17.9395 14.3184 17.8687 14.1779 17.7535L14.1106 17.6925C13.9595 17.5414 13.8666 17.3431 13.8457 17.1323L13.8411 17.0417C13.8411 16.8281 13.9153 16.6221 14.0496 16.4583L14.1106 16.391C14.2617 16.2399 14.46 16.147 14.6708 16.1261L14.7614 16.1215H18.4425L18.5338 16.1261C18.7444 16.1471 18.9423 16.2401 19.0932 16.391C19.2658 16.5636 19.3628 16.7977 19.3628 17.0417L19.3578 17.1323C19.3369 17.343 19.2441 17.5414 19.0932 17.6925L19.0256 17.7535C18.8618 17.8877 18.656 17.962 18.4425 17.962L18.4421 17.7417C18.6276 17.7417 18.806 17.6678 18.9372 17.5368C19.0683 17.4056 19.1421 17.2272 19.1421 17.0417ZM2.57688 15.6613V14.0598L2.89826 14.2237C3.82388 14.6953 5.06614 14.9808 6.47876 14.9808V15.2012L5.94708 15.1879C4.72438 15.1257 3.63996 14.8499 2.79761 14.4208V15.6613L2.81414 15.7573C2.96573 16.2234 4.16242 16.9388 6.06139 17.032L6.47876 17.0417C8.61885 17.0417 9.98097 16.2566 10.1434 15.7573L10.1599 15.6613V14.4208C9.19729 14.9113 7.91901 15.2012 6.47876 15.2012V14.9808C7.89138 14.9808 9.13364 14.6953 10.0593 14.2237L10.3806 14.0598V15.6613C10.3806 15.8797 10.2334 16.0829 10.0549 16.2458C9.86618 16.4182 9.59777 16.5867 9.26551 16.7355C8.59928 17.0337 7.64797 17.2628 6.47876 17.2628C5.30955 17.2628 4.35824 17.0337 3.69201 16.7355C3.35975 16.5867 3.09134 16.4182 2.90258 16.2458C2.72407 16.0829 2.57688 15.8797 2.57688 15.6613ZM15.4613 13.361V12.4399C15.4612 12.2547 15.3872 12.0771 15.2564 11.946C15.1252 11.8148 14.9468 11.7411 14.7614 11.7411C14.5759 11.7411 14.3975 11.8148 14.2663 11.946C14.1355 12.0771 14.0615 12.2547 14.0614 12.4399V13.361C14.0615 13.5462 14.1355 13.7238 14.2663 13.8549C14.3975 13.9861 14.5759 14.0598 14.7614 14.0598V14.2809L14.6708 14.2766C14.49 14.2587 14.3184 14.1878 14.1779 14.0727L14.1106 14.0113C13.9596 13.8603 13.8667 13.6622 13.8457 13.4515L13.8411 13.3606V12.4403C13.8411 12.227 13.9156 12.0212 14.0496 11.8576L14.1106 11.7896C14.2832 11.617 14.5173 11.52 14.7614 11.52L14.8519 11.5243C15.0627 11.5452 15.261 11.6386 15.4121 11.7896C15.5847 11.9622 15.6816 12.1962 15.6816 12.4403V13.3606L15.677 13.4515C15.656 13.6622 15.5631 13.8603 15.4121 14.0113C15.2395 14.1839 15.0054 14.2809 14.7614 14.2809V14.0598C14.9468 14.0598 15.1252 13.9861 15.2564 13.8549C15.3872 13.7238 15.4612 13.5462 15.4613 13.361ZM19.1421 13.361V12.4399C19.142 12.2547 19.0681 12.0771 18.9372 11.946C18.806 11.8148 18.6276 11.7411 18.4421 11.7411C18.2568 11.7412 18.0793 11.8149 17.9482 11.946C17.8171 12.0771 17.7434 12.2546 17.7433 12.4399V13.361C17.7434 13.5463 17.8171 13.7238 17.9482 13.8549C18.0793 13.986 18.2568 14.0597 18.4421 14.0598L18.4425 14.2809L18.3516 14.2766C18.1712 14.2587 18.0001 14.1875 17.8598 14.0727L17.7918 14.0113C17.6407 13.8603 17.5474 13.6622 17.5265 13.4515L17.5222 13.3606V12.4403C17.5223 12.2271 17.5965 12.0212 17.7304 11.8576L17.7918 11.7896C17.9643 11.617 18.1984 11.52 18.4425 11.52L18.5338 11.5243C18.7444 11.5453 18.9423 11.6386 19.0932 11.7896C19.2658 11.9622 19.3628 12.1962 19.3628 12.4403V13.3606L19.3578 13.4515C19.3368 13.6621 19.2441 13.8604 19.0932 14.0113L19.0256 14.0727C18.8619 14.2068 18.656 14.2809 18.4425 14.2809L18.4421 14.0598C18.6276 14.0598 18.806 13.9861 18.9372 13.8549C19.0681 13.7238 19.142 13.5462 19.1421 13.361ZM10.1599 11.9802C10.1599 11.5237 8.93118 10.7097 6.89612 10.6098L6.47876 10.5997C4.19553 10.5997 2.79761 11.4933 2.79761 11.9802L2.81414 12.0754C2.96482 12.5415 4.16155 13.2569 6.06139 13.3502L6.47876 13.3606C8.61978 13.3606 9.98194 12.5747 10.1434 12.0754L10.1599 11.9802ZM12.0005 8.75916C12.0005 8.54559 12.0745 8.33947 12.2086 8.17571L12.27 8.10841C12.421 7.9574 12.6192 7.86446 12.8298 7.84354L12.9208 7.83887H17.5222V5.99829H10.1599V6.45843L10.1552 6.54939C10.1343 6.76006 10.0414 6.95816 9.89037 7.10918C9.71778 7.28176 9.4837 7.37872 9.23962 7.37872V7.15764C9.42512 7.15764 9.60347 7.0839 9.73464 6.95273C9.8655 6.82168 9.93945 6.64399 9.93955 6.45879V5.77721H17.7433V8.05923H12.9204C12.7352 8.05933 12.5575 8.13328 12.4265 8.26414C12.2953 8.39531 12.2216 8.57366 12.2216 8.75916C12.2216 8.94465 12.2953 9.123 12.4265 9.25417C12.5575 9.38503 12.7352 9.45898 12.9204 9.45908L12.9208 9.67944C12.7075 9.67936 12.5017 9.60491 12.338 9.47094L12.27 9.4099C12.119 9.25881 12.0256 9.06048 12.0048 8.84975L12.0005 8.75916ZM17.5222 9.45908V9.67944H12.9208L12.9204 9.45908H17.5222ZM19.1421 7.83923V5.99829C19.1421 5.1052 18.4153 4.37844 17.5222 4.37844H10.1596C9.26662 4.37863 8.5397 5.10532 8.5397 5.99829V6.45879C8.5398 6.64399 8.61375 6.82168 8.74461 6.95273C8.87578 7.0839 9.05413 7.15764 9.23962 7.15764V7.37872L9.14903 7.37441C8.96832 7.35654 8.79664 7.28567 8.65618 7.17058L8.58888 7.10918C8.43787 6.95816 8.34493 6.76006 8.32401 6.54939L8.31934 6.45843V5.99829C8.31934 4.98321 9.14483 4.15771 10.1599 4.15771H17.5222L17.7099 4.16706C18.6371 4.26133 19.3628 5.04655 19.3628 5.99829V7.83887L19.3534 8.02688C19.2653 8.89226 18.5753 9.58249 17.7099 9.67046L17.5222 9.67944V9.45908C18.4152 9.45908 19.1419 8.73216 19.1421 7.83923ZM6.25767 5.99829V5.07836C6.25767 3.43422 7.59548 2.09641 9.23962 2.09641V2.31714C7.71747 2.31714 6.47876 3.55585 6.47876 5.078V5.99829L6.47445 6.08888C6.45361 6.29962 6.36021 6.49795 6.20921 6.64903C6.03663 6.82162 5.80255 6.91858 5.55847 6.91858L5.55883 6.69821C5.74403 6.69812 5.92172 6.62416 6.05277 6.49331C6.18393 6.36214 6.25767 6.18379 6.25767 5.99829ZM18.4421 2.09641L18.4425 2.31714H9.23962V2.09641H18.4421ZM10.3806 11.9805C10.3805 12.1986 10.2332 12.4011 10.0549 12.564C9.86617 12.7363 9.5978 12.9059 9.26551 13.0547C8.59929 13.3529 7.64789 13.581 6.47876 13.581C5.30963 13.581 4.35823 13.3529 3.69201 13.0547C3.35972 12.9059 3.09135 12.7363 2.90258 12.564C2.7243 12.4011 2.57704 12.1986 2.57688 11.9805C2.57688 11.7622 2.72413 11.559 2.90258 11.396C3.09135 11.2236 3.35972 11.0541 3.69201 10.9053C4.35823 10.6071 5.3097 10.379 6.47876 10.379C7.64781 10.379 8.59929 10.6071 9.26551 10.9053C9.5978 11.0541 9.86617 11.2236 10.0549 11.396C10.2334 11.559 10.3806 11.7622 10.3806 11.9805Z" fill="#5E60CE"/>
</svg>

<svg width="24" height="24" fill="none" xmlns="http://www.w3.org/2000/svg"><path d="M6.479 8.76C3.33 8.76.957 10.143.957 11.98v7.363c0 1.835 2.373 3.22 5.522 3.22 3.148 0 5.522-1.385 5.522-3.22V11.98c0-1.836-2.374-3.22-5.522-3.22zm3.68 6.901c0 .487-1.397 1.38-3.68 1.38-2.283 0-3.681-.893-3.681-1.38v-1.24c.962.49 2.24.78 3.68.78 1.441 0 2.72-.29 3.682-.78v1.24zM6.48 10.6c2.283 0 3.68.893 3.68 1.38 0 .487-1.397 1.38-3.68 1.38-2.283 0-3.681-.893-3.681-1.38 0-.487 1.398-1.38 3.68-1.38zm0 10.123c-2.283 0-3.681-.894-3.681-1.38v-1.241c.962.49 2.24.78 3.68.78 1.441 0 2.72-.29 3.682-.78v1.24c0 .487-1.398 1.38-3.681 1.38zM23.044 5.078v12.884a4.607 4.607 0 01-4.602 4.602h-4.6a.92.92 0 010-1.841h4.6a2.764 2.764 0 002.761-2.761V5.078a2.764 2.764 0 00-2.76-2.76H9.24a2.764 2.764 0 00-2.761 2.76v.92a.92.92 0 11-1.84 0v-.92a4.607 4.607 0 014.6-4.601h9.203a4.607 4.607 0 014.602 4.601zM12.92 9.679a.92.92 0 110-1.84h4.601v-1.84H10.16v.46a.92.92 0 11-1.84 0v-.46c0-1.016.825-1.841 1.84-1.841h7.362c1.015 0 1.84.825 1.84 1.84v1.84a1.842 1.842 0 01-1.84 1.841h-4.601zm.92 7.363a.92.92 0 01.92-.92h3.681a.92.92 0 110 1.84h-3.68a.92.92 0 01-.92-.92zm0-3.681v-.92a.92.92 0 111.84 0v.92a.92.92 0 11-1.84 0zm5.522 0a.92.92 0 01-1.84 0v-.92a.92.92 0 011.84 0v.92z" fill="#fff"/><path d="M11.78 19.342v-7.361c0-.812-.523-1.556-1.47-2.109-.946-.552-2.287-.892-3.831-.892-1.545 0-2.885.34-3.83.892-.948.553-1.47 1.297-1.47 2.108v7.362c0 .811.522 1.556 1.47 2.109.945.551 2.285.891 3.83.891v.222l-.582-.017c-2.854-.159-4.94-1.483-4.94-3.204V11.98c0-1.836 2.373-3.22 5.522-3.22l.581.015C9.915 8.935 12 10.26 12 11.98v7.363l-.006.17c-.142 1.75-2.466 3.05-5.515 3.05v-.22c1.545 0 2.885-.34 3.83-.892.948-.553 1.47-1.298 1.47-2.109zm1.14 2.301a.92.92 0 01.83-.915l.091-.005h4.601a2.764 2.764 0 002.761-2.761V5.078a2.765 2.765 0 00-2.478-2.746l-.283-.015v-.22a2.985 2.985 0 012.982 2.981v12.884a2.985 2.985 0 01-2.982 2.982h-4.6a.7.7 0 00-.496 1.194.7.7 0 00.495.204v.222l-.091-.005a.92.92 0 01-.824-.825l-.005-.09zm5.522.7v.22h-4.6v-.22h4.6zm4.38-4.381V5.078a4.386 4.386 0 00-4.38-4.38H9.24a4.386 4.386 0 00-4.381 4.38v.92a.7.7 0 00.7.7v.22l-.092-.004a.92.92 0 01-.824-.825l-.005-.09v-.921A4.607 4.607 0 019.003.483L9.24.477h9.202a4.607 4.607 0 014.602 4.601v12.884l-.006.237a4.607 4.607 0 01-4.359 4.358l-.236.007v-.222a4.386 4.386 0 004.38-4.38zm-20.245 1.38v-1.6l.321.164c.926.471 2.168.756 3.58.756v.22l-.53-.013c-1.224-.063-2.308-.338-3.15-.767v1.24l.016.096c.151.466 1.348 1.182 3.247 1.275l.418.01c2.283 0 3.68-.894 3.68-1.38v-1.241c-.962.49-2.24.78-3.68.78v-.22c1.412 0 2.655-.285 3.58-.756l.322-.164v1.6c0 .218-.148.422-.326.585a2.997 2.997 0 01-.79.49c-.666.298-1.617.527-2.786.527-1.17 0-2.12-.229-2.787-.527a2.998 2.998 0 01-.79-.49c-.178-.163-.325-.367-.325-.585zm15.865-1.6v.22h-3.68v-.22h3.68zm.7-.7a.7.7 0 00-.7-.7h-3.68a.701.701 0 000 1.4v.22l-.091-.005a.92.92 0 01-.493-.204l-.067-.06a.92.92 0 01-.265-.56l-.005-.091a.92.92 0 01.209-.584l.06-.067a.92.92 0 01.56-.265l.091-.005h3.681l.092.005a.92.92 0 01.829.916l-.005.09a.922.922 0 01-.265.56l-.067.061a.92.92 0 01-.584.209v-.22a.701.701 0 00.7-.7zm-16.565-1.38V14.06l.321.164c.926.471 2.168.757 3.58.757v.22l-.53-.013c-1.224-.062-2.308-.338-3.15-.767v1.24l.016.096c.152.466 1.348 1.182 3.247 1.275l.418.01c2.14 0 3.502-.785 3.664-1.285l.017-.096v-1.24c-.963.49-2.241.78-3.681.78v-.22c1.412 0 2.655-.286 3.58-.757l.322-.164v1.601c0 .219-.148.422-.326.585a3 3 0 01-.79.49c-.666.298-1.617.527-2.786.527-1.17 0-2.12-.23-2.787-.528a3 3 0 01-.79-.49c-.178-.162-.325-.365-.325-.584zM15.46 13.36v-.921a.7.7 0 00-1.4 0v.921a.7.7 0 00.7.699v.22l-.09-.003a.921.921 0 01-.493-.204l-.067-.062a.92.92 0 01-.265-.56l-.005-.09v-.92a.92.92 0 01.209-.583l.06-.068a.92.92 0 01.651-.27l.09.004a.922.922 0 01.83.916v.92l-.004.091a.92.92 0 01-.916.83v-.221a.7.7 0 00.7-.699zm3.681 0v-.921a.7.7 0 00-1.399 0v.921a.699.699 0 00.7.699v.22l-.091-.003a.92.92 0 01-.492-.204l-.068-.062a.92.92 0 01-.266-.56l-.004-.09v-.92c0-.214.075-.42.208-.583l.062-.068a.92.92 0 01.65-.27l.092.004a.92.92 0 01.829.916v.92l-.005.091a.92.92 0 01-.265.56l-.067.062a.92.92 0 01-.584.208v-.221a.7.7 0 00.7-.699zm-8.982-1.38c0-.457-1.229-1.271-3.264-1.371l-.417-.01c-2.283 0-3.681.893-3.681 1.38l.016.095c.15.466 1.348 1.182 3.247 1.275l.418.01c2.14 0 3.503-.785 3.664-1.285l.017-.095zM12 8.758a.92.92 0 01.209-.583l.061-.068a.92.92 0 01.56-.264l.09-.005h4.602v-1.84H10.16v.46l-.005.09a.92.92 0 01-.915.83v-.221a.7.7 0 00.7-.7v-.68h7.803v2.281H12.92a.7.7 0 000 1.4v.22a.921.921 0 01-.582-.208l-.068-.061a.92.92 0 01-.265-.56L12 8.76zm5.522.7v.22h-4.601v-.22h4.601zm1.62-1.62V6c0-.894-.727-1.62-1.62-1.62H10.16c-.893 0-1.62.726-1.62 1.62v.46a.7.7 0 00.7.699v.22l-.091-.004a.92.92 0 01-.493-.203l-.067-.062a.92.92 0 01-.265-.56l-.005-.09V6c0-1.016.826-1.841 1.84-1.841h7.363l.188.01a1.842 1.842 0 011.653 1.83v1.84l-.01.189A1.844 1.844 0 0117.71 9.67l-.188.01v-.22c.893 0 1.62-.728 1.62-1.62zM6.258 6v-.92A2.985 2.985 0 019.24 2.095v.221a2.764 2.764 0 00-2.761 2.761v.92l-.005.09a.921.921 0 01-.916.83v-.22a.7.7 0 00.7-.7zm12.184-3.903v.221H9.24v-.22h9.202zm-8.061 9.884c0 .219-.148.421-.326.584a3.002 3.002 0 01-.79.49c-.666.299-1.617.527-2.786.527-1.17 0-2.12-.228-2.787-.526a3.003 3.003 0 01-.79-.491c-.178-.163-.325-.365-.325-.584 0-.218.147-.421.326-.584a3 3 0 01.789-.49c.666-.299 1.618-.527 2.787-.527 1.169 0 2.12.228 2.787.526a3 3 0 01.789.491c.178.163.326.366.326.584z" fill="#5E60CE"/></svg>
